X: 81
M: 6/8
L: 1/8
K: C
z |
e3 g/^f/ag | e2c ABA | G3 g^fe | d3- d2z |
e3 g/^f/ag | e2c ABA | G^FG A2B | cGE [c2E2] |]


